!!!!SEGMENT: pl-wtm--1350-fp-4575--001-001_stojowski-zygmunt--idylles-polonaises-op-24-no-1-solitude.krn
!!!cenid: 19xx:165
!!!COM: Stojowski, Zygmunt
!!!COM-rismID: pe41019736
!!!CDT: 1870-1946
!!!CNT: Polish
!!!GTL: Idylles Polonaises Op. 24
!!!OTL: No. 1 Solitude
!!!OMV: 001
!!!PDT: 1901
!!!AGN: Secular; Polonaise
!!!YEC: Copyright 2022 Narodowy Instytut Fryderyka Chopina (https://polishscores.org)
!!!YEM: License CC-BY-4.0 (https://creativecommons.org/licenses/by/4.0)
!!!SMS-siglum: PL-Wtm
!!!SMS-shelfmark: 1350 fp 4575
!!!SMS-variant:
!!!SMS-altvar:
!!!SMS-shelfwork: 001-001 G
!!!NIFC-rismSourceID: 1001214687
!!!NIFC-rismChildID: 1001214687
!!!NIFC-islandoraID: pl-wtm:83027
!!!URL-pdf-islandora: https://repozytorium.nifc.pl/islandora/object/pl-wtm%3A83027/datastream/PDF/view
!!!URL-scan: https://polish.musicsources.pl/pl/lokalizacje/galeria/druki-muzyczne/18546/2 @EN{Scan on Polish Music Sources Website} @PL{Skany w portalu Dziedzictwo Muzyki Polskiej w otwartym dostępie}
!!!IIIF:
!!!ONB-nifc:
!!!AIN: 1 piano
!!!key: b-
**kern	**fing	**kern	**fing	**dynam
*part1	*	*part1	*	*part1
*staff2	*	*staff1	*	*staff1/2
*group1	*	*group1	*	*
*ICklav	*	*ICklav	*	*
*Ipiano	*	*Ipiano	*	*
*I"[Pianoforte]	*	*I"[Pianoforte]	*	*
*I'	*	*	*	*
*clefF4	*	*clefG2	*	*
*k[b-e-a-d-g-]	*	*k[b-e-a-d-g-]	*	*
*b-:	*	*b-:	*	*
*M2/4	*	*M2/4	*	*
=1	=1	=1	=1	=1
*	*below	*	*	*
!!LO:TX:a:B:t=Andantino quasi allegretto.
8en 8B-'\	2 5	2r	.	p
4e 4B-~\	.	.	.	.
(8f 8B-\	.	.	.	.
=2	=2	=2	=2	=2
8g- 8B-'\)	2 5	2r	.	.
4f 4B-~\	1 5	.	.	.
(8f 8B-\	.	.	.	.
=3	=3	=3	=3	=3
8en 8B-'\)	.	16.r	.	.
!	!	!LO:TX:b:i:t=dolce, con duolo	!	!
.	.	(32dd-\	4	.
4f 4B-\	.	4an/	.	.
(8f 8B-\	.	8b-\)	.	.
=4	=4	=4	=4	=4
*	*	*^	*	*
8g- 8B-'\)	.	(8cc/L	2b-\	1 2	.
4g- 4B-~\	.	8dd-/J	.	.	.
.	.	4ee-/)	.	.	.
8g- 8B-\	.	.	.	.	.
=5	=5	=5	=5	=5	=5
8g- 8B-'\	.	(8een/L	4.dd-\	1 2	.
(4f 4B-\	.	8ff/	.	.	.
.	.	8..bb-/	.	.	.
8e- 8B-\)	.	.	[8cc\	.	.
.	.	32gg-/Jkk	.	3	.
*	*	*v	*v	*	*
=6	=6	=6	=6	=6
8e- 8B-'\	.	8ff 8cc'\])	2	.
(4d- 4B-\	.	4.ff 4.b-\	2 5	.
8c 8B-\	.	.	.	.
=7	=7	=7	=7	=7
8d- 8B-'\)	.	16.r	.	.
.	.	(32ff\	4	.
(4e- 4B-\	.	4cc\	.	.
8f 8B-\	.	8dd-\)	.	.
!!LO:LB:g=original
=8	=8	=8	=8	=8
*	*	*^	*	*
8g- 8B--'\)	2 5	(8ee-/L	2dd-\	1 2	.
(4f 4B--\	1 5	8ff/J	.	.	.
.	.	4gg-/)	.	.	.
8e- 8B--\	.	.	.	.	.
=9	=9	=9	=9	=9	=9
8en 8A-'\)	1 5	(8ggn/L	2dd-\	1 2	.
!	!	!LO:TX:b:i:t=poco slentando	!	!	!
(4f 4A-\	.	8aa-/	.	.	.
.	.	8..ddd-/	.	.	.
8g- 8G-\)	.	.	.	.	.
.	.	32bb-/Jkk	.	3	.
=10	=10	=10	=10	=10	=10
!LO:TX:b:i:t=con [Ped]	!	!	!	!	!
8g- 8d-'\	1 3	8aa-'/)	2dd-\	2	.
4.f 4.d-\	1 2	4.aa-/	.	3	.
*	*	*v	*v	*	*
=11	=11	=11	=11	=11
!!LO:TX:a:i:t=a tempo
8AA-L 8DD-\	.	16.r	.	.
!	!	!	!	!LO:DY:t=%s espressivo
.	.	(32aa-\	4	mp
[8a-J [8g- [8c\	4	4ddn\	.	.
4a-] 4g-] 4c] 4A-\	.	.	.	.
.	.	8ee-\	.	.
=12	=12	=12	=12	=12
8AA-L 8DD-\	.	8ff\L)	.	.
.	.	(16qqdd-/LL	2	.
.	.	16qqee-/JJ	.	.
(<[8fJ [8d- 8B-\	4	(8dd-X\)	.	.
4f] 4d-] 4A-\)	.	8cc\	1	.
.	.	8b-\J	4	.
=13	=13	=13	=13	=13
8AA-L 8DD-\	.	8.a-/L)	3	.
(<[8cJ 8B-\	2	.	.	.
.	.	(16e-/K	1	.
4c] 4A-\)	.	8g-/	3	.
.	.	8f/J	2	.
=14	=14	=14	=14	=14
8AA-L 8DD-\	.	2a-~/)	4	.
[8fJ 8e- [8A-\	5	.	.	.
4f] 4d- 4A-\]	.	.	.	.
!!LO:LB:g=original
=15	=15	=15	=15	=15
!	!	!	!	!LO:DY:t=più %s
8AA-L 8DD-\	.	16.r	.	p
.	.	(32aa-\	.	.
(<[8a-J [8g- [8c\	4	4ddn\	.	.
4a-] 4g-] 4c] 4A-\)	.	.	.	.
.	.	8ee-\	.	.
=16	=16	=16	=16	=16
8AA-L 8DD-\	.	8ff\L)	.	.
.	.	(16qqdd-X/LL	2	.
.	.	16qqee-/JJ	.	.
(<[8fJ [8d- 8B-\	4	(8dd-\)	.	.
!	!	!	!	!LO:HP:t=poco cresc.
4f] 4d-] 4A-\)	.	8cc\	1	<
.	.	8b-\J	4	.
=17	=17	=17	=17	=17
8FF\L	.	8.an/L)	3	.
[8cJ 8B-\	.	.	.	.
.	.	(<(<16e-/K	1	.
4c] 4An\	.	8g-/)	2	.
.	.	(<8f/J	1	.
=18	=18	=18	=18	=18
8DD-\L	.	[2b-\))	4	.
(8g-J [8B- (8G-\	.	.	.	.
4f 4B-] 4F\))	.	.	.	.
=19	=19	=19	=19	=19
8CC\L	.	8.b-/L]	.	.
(8fJ [8B- (8F\	.	.	.	.
.	.	((16gn/K	2	.
4en 4B-] 4En\))	.	8b-/)	4	.
.	.	(8an/J	3	.
=20	=20	=20	=20	=20
!LO:TX:t=P:problem:mixed beam	!	!LO:TX:b:i:t=pochissimo rit.	!	!
8FFF/L	.	2cc\))	5	.
(8enJ [>8An (8En\	.	.	.	.
4e-X 4A] 4E-X\))	.	.	.	.
!!LO:LB:g=original
=21	=21	=21	=21	=21
*^	*	*	*	*
!!LO:TX:a:i:t=a tempo
8ryy	8BBB-/	.	16.r	.	p
.	.	.	(32dd-\	4	.
!LO:TX:b:i:t=legg.	!	!	!	!	!
16f'/LL	4.F\	.	4an/	.	.
16e-'/J	.	2	.	.	.
16d-'/L	.	3	.	.	.
16c'/J	.	1	.	.	.
8B-~/J	.	2	8b-\)	.	.
=22	=22	=22	=22	=22	=22
*	*	*	*^	*	*
8ryy	8BBB-/	.	(8cc/L	2b-\	1 2	.
16g-'/LL	4.B- 4.G-\	4 5	8dd-/J	.	.	.
16f'/J	.	1	.	.	.	.
16e-'/L	.	2	4ee-~/)	.	.	.
16d-'/J	.	3	.	.	.	.
8c~/J	.	1	.	.	.	.
*	*	*	*v	*v	*	*
=23	=23	=23	=23	=23	=23
8ryy	8BBB-/	.	(8een\L	1	.
*clefG2	*	*	*	*	*
16b-'/LL	(4d- 4B-\	4 5	8ffn\	.	.
16a-'/J	.	1	.	.	.
16g-'/L	.	2	8..bb-\	4	.
16f'/J	.	1	.	.	.
8e-~/J	8c\)	2 4	.	.	.
.	.	.	32gg-\Jkk	.	.
*clefF4	*	*	*	*	*
=24	=24	=24	=24	=24	=24
8ryy	8BBB-/	.	8ff'\)	1	.
*clefG2	*	*	*	*	*
16dd-'/LL	(4f 4d-\	4 5	[4.ff\	3	.
16cc'/J	.	1	.	.	.
16b-'/L	.	2	.	.	.
16an'/J	.	1	.	.	.
8a-X~/J	8dn\)	.	.	.	.
*clefF4	*	*	*	*	*
=25	=25	=25	=25	=25	=25
8ryy	8EE-/	.	16ff\LL]	.	.
.	.	.	32rff	.	.
.	.	.	(32gg-\JJk	4	.
*clefG2	*	*	*	*	*
16b-'/LL	4.B-\	.	4ddn\	1	.
16a-'/J	.	1	.	.	.
16g-'/L	.	2	.	.	.
16f'/J	.	1	.	.	.
8e-~/J	.	2	8ee-\	.	.
*clefF4	*	*	*	*	*
!!LO:LB:g=original
=26	=26	=26	=26	=26	=26
*	*	*	*^	*	*
8ryy	8EE-/	.	8ff/L	[2ee-\	1 2	.
*clefG2	*	*	*	*	*	*
16cc-X'/LL	4.e- 4.c-X\	4 5	8gg-/J	.	.	.
16b-'/J	.	1	.	.	.	.
16a-'/L	.	2	4aa-~/)	.	.	.
16g-'/J	.	3	.	.	.	.
8f~/J	.	1	.	.	.	.
*clefF4	*	*	*	*	*	*
=27	=27	=27	=27	=27	=27	=27
8ryy	8EE-/	.	(8aan/L	4.ee-\]	2	.
16g-'/LL	(4B- 4G-\	.	8bb-/	.	3	.
16f'/J	.	.	.	.	.	.
16e-'/L	.	.	8.eee-/	.	5	.
16d-'/J	.	.	.	.	.	.
8c-X~/J	8A-\)	1 4	.	[8ff\	.	[ <
.	.	.	16ccc-X/Jk	.	3	.
*v	*v	*	*	*	*	*
=28	=28	=28	=28	=28	=28
*	*above	*	*	*	*
16GG-'/LL	5	8aan/L	4ff\]	2	.
16D-'/	3	.	.	.	.
16E-'/	.	8bb-/	.	3	.
16F'/JJ	.	.	.	.	.
!	!	!LO:TX:b:i:t=ed	!	!	!
(16C-X\LL	.	8.ddd-/	[4ee-\	.	.
16G-\J	.	.	.	.	.
8e-\J)	.	.	.	.	.
.	.	16bb-/Jk	.	3	.
=29	=29	=29	=29	=29	=29
!	!	!LO:TX:b:i:t=incalzando-:dur=4q:ext=ud:problem:text with extention lines	!	!	!
(16FF/LL	.	8ggn/L	4ee-\]	2	.
16C-X/J	.	.	.	.	.
8A-/J)	.	8aa-X/	.	.	.
(16BB-\LL	.	8ccc-X/	4ddn\	.	.
16F\J	.	.	.	.	.
8dn\J)	.	16bb-/L	.	4	.
.	.	16aa-/JJ	.	.	.
=30	=30	=30	=30	=30	=30
*^	*^	*	*	*	*
16EE-'/LL	4ryy	5	.	8ff/L	4ee-\	1 3	.
16BB-'/	.	3	.	.	.	.	.
16Cn'/	.	.	.	8gg-/	.	.	.
16D-'/JJ	.	.	.	.	.	.	.
(16Dn/LL	4AA-\	3	5	8.bb-/	[4cc\	5	.
16E-/J	.	.	.	.	.	.	.
8c/J)	.	.	.	.	.	.	.
.	.	.	.	16gg-/Jk	.	3	.
*	*	*v	*v	*	*	*	*
*v	*v	*	*	*	*	*
!!LO:PB:g=original
=31	=31	=31	=31	=31	=31
(16DD-/LL	.	8een/L	4cc\]	2	.
16AA-/J	.	.	.	.	.
!	!	!LO:TX:b:i:t=calando-e-dim.:ext=s:problem:text with extention lines	!	!	!
8F/J)	.	8ff/	.	.	>
(16GG-\LL	.	8aa-/	4b-\	.	.
16D-\J	.	.	.	.	.
8B-\J)	.	16gg-/L	.	.	.
.	.	16ff/JJ	.	.	.
=32	=32	=32	=32	=32	=32
(16C\LL	.	8ddn/L	4b-\	2	.
16G-\J	.	.	.	.	.
8e-\J)	.	8ee-X/	.	.	.
(16FF/LL	.	8.gg-::/	4an::\	.	.
16C/J	.	.	.	.	]
8An/J)	.	.	.	.	.
.	.	16ee-/Jk	.	3	.
=33	=33	=33	=33	=33	=33
!!LO:TX:a:i:t=a tempo
(16GG-~\LL	.	8dd-'/)	2b-\	.	p
16D-\J	.	.	.	.	.
8B-\J)	.	(4.dd-/	.	4	<
(16FF~/LL	.	.	.	.	.
16D-/J	.	.	.	.	.
8A-/J)	.	.	.	.	.
*	*	*v	*v	*	*
=34	=34	=34	=34	=34
(16EEn~/LL	.	8d-'>/)	.	.
16D-/J	.	.	.	.
8Gn/J)	.	4.d-/	2	.
(16EE-X~/LL	.	.	.	[
16D-/J	.	.	.	.
8G-X/J)	.	.	.	.
=35	=35	=35	=35	=35
*	*	*^	*	*
*	*below	*	*	*	*
!	!	!LO:TX:b:i:t=espress.	!	!	!
(16DD-/LL	5	(8an/L	4f\	1 2	.
16D-/J	1	.	.	.	.
8F/J)	2	8b-/	.	.	.
(16CC/LL	.	8.dd-::/	4en::\	.	>
16C/J	.	.	.	.	.
8G-/J)	.	.	.	.	.
.	.	16b-/Jk	.	3	]
=36	=36	=36	=36	=36	=36
!	!	!LO:TX:t=P:problem:brak początku ligatury	!	!	!
(16FF/LL	.	8an'/)	[2f\	.	.
16C/J	.	.	.	.	.
8An~>/J)	.	[4.a/	.	.	<
(16FF/LL	.	.	.	.	.
16D-/J	.	.	.	.	.
8B-~>/J)	.	.	.	.	.
*	*	*v	*v	*	*
!!LO:LB:g=original
=37	=37	=37	=37	=37
(16FF\LL	.	2a] 2f/]	.	.
16Dn\J	.	.	.	[
8Bn~\J)	.	.	.	.
(16FF\LL	.	.	.	.
16E-\J	.	.	.	.
[8c~\J)	.	.	.	.
=38	=38	=38	=38	=38
!LO:TX:b:i:t=ad lib.espressivo	!	!	!	!
(8c\L]	.	2r	.	.
*	*above	*	*	*
8Bn\	4	.	.	.
!	!	!	!	!LO:HP:b=2
8.d-\	2	.	.	<
16c\Jk	3	.	.	.
=39	=39	=39	=39	=39
16e-\LL)	1	2r	.	.
16dn\JJ	2	.	.	[
!	!	!	!	!LO:HP:b=2
(4f\	1	.	.	>
8e-\	.	.	.	.
=40	=40	=40	=40	=40
8G-\)	.	2r	.	]
!	!	!	!	!LO:HP:b=2
(4G-\	2	.	.	<
8F\	.	.	.	.
=41	=41	=41	=41	=41
8A-\L	1	2r	.	.
8G-\	2	.	.	[
8.D-\	4	.	.	.
16C\Jk	.	.	.	.
=42	=42	=42	=42	=42
4.B-\	1	2r	.	.
!	!	!	!	!LO:HP:b=2
8An\	.	.	.	>
=43	=43	=43	=43	=43
8F\)	4	2r	.	]
[4.F\	2	.	.	.
=44	=44	=44	=44	=44
16F] 16BB-\	.	8..r	.	p
32r	.	.	.	.
*	*below	*	*	*
(32d-\	1	.	.	.
4An\	3	.	.	.
.	.	[32ff [32dd-\	3 5	.
.	.	4ff] 4dd-] 4f\	.	.
!LO:TX:t=P:problem:brak kontynuacji łuku	!	!	!	!
8B-\	2	.	.	.
!!LO:LB:g=original
=45	=45	=45	=45	=45
8c\L)	.	16.r	.	.
.	.	[32bb-KKL [32gg-\	.	.
*	*above	*	*	*
8d-J [8G-\	5 2	8bb-]J 8gg-] 8b-\	.	.
4e- 4G-~\]	.	16.r	.	.
.	.	[32eee-KKL [32bb-\	.	.
.	.	8eee-]J 8bb-] 8ee-\	.	.
*clefG2	*	*	*	*
=46	=46	=46	=46	=46
*^	*^	*	*	*
(8en/L	[2B-\	3	5	16.r	.	.
.	.	.	.	[32ddd-KKL [32bb-\	.	.
8f/	.	2	.	8ddd-]J 8bb-] 8dd-\	.	.
8..b-/	.	1	.	16.r	.	.
.	.	.	.	[32eeenKKL [32ddd-\	.	.
.	.	.	.	8eee]J 8ddd-] 8een\	.	.
32g-/Jkk	.	2	.	.	.	.
*	*	*v	*v	*	*	*
=47	=47	=47	=47	=47	=47
8f'/)	2B-\]	1	16.r	.	.
.	.	.	[32fffKKL [32ddd-\	.	.
[4.f/	.	.	8fff]J 8ddd-] 8ff\	.	.
.	.	.	16.r	.	.
.	.	.	[32ddd-KKL [32ff\	.	.
.	.	.	8ddd-]J 8ff] 8dd-\	.	.
=48	=48	=48	=48	=48	=48
16f/LL]	[2B--\	.	8..r	.	.
32r	.	.	.	.	.
*	*	*below	*	*	*
(32f/JJk	.	1	.	.	.
4c/	.	4	.	.	.
.	.	.	[32ff [32dd-\	.	.
.	.	.	4ff] 4dd-] 4f\	.	.
8d-/	.	3	.	.	.
*v	*v	*	*	*	*
=49	=49	=49	=49	=49
8e-L 8B--/]	.	16.r	.	.
.	.	[32ddd-KKL [32ff\	.	.
8fJ 8A-/	1 5	8ddd-]J 8ff] 8dd-\	.	.
4g- 4G-~>/)	.	16.r	.	.
*	*	*8va	*	*
.	.	[32ggg-KKL [32bb-\	.	.
.	.	8ggg-]J 8bb-] 8gg-\	.	.
=50	=50	=50	=50	=50
*^	*	*	*	*
*	*	*above	*	*	*
(8gn/L	[2d-\	3	16.r	.	.
.	.	.	[32fffKKL [32ddd-\	.	.
8a-/	.	2	8fff]J 8ddd-] 8ff\	.	.
!	!	!	!LO:TX:b:i:t=poco rit.	!	!
8..dd-/	.	1	16.r	.	.
.	.	.	[32gggnKKL [32eeen\	.	.
.	.	.	8ggg]J 8eee] 8ggn\	.	.
*	*	*below	*	*	*
32b--/Jkk	.	2	.	.	.
!!LO:LB:g=original
=51	=51	=51	=51	=51	=51
*	*	*above	*	*	*
8a-'/)	4.d-\]	3	16.r	.	.
.	.	.	[32aaa-KKL [32fff\	.	.
4a-~/	.	1	8aaa-]J 8fff] 8aa-\	.	.
.	.	.	16.r	.	.
.	.	.	[32fffKKL [32ddd-\	.	.
8r;	8ryy	.	8fff]J 8ddd-] 8ff;\	.	.
*	*	*	*X8va	*	*
*v	*v	*	*	*	*
*clefF4	*	*	*	*
=52	=52	=52	=52	=52
!!LO:TX:a:i:t=a tempo
8BBB-\L	.	16.r	.	.
.	.	(32ff\	.	.
*	*below	*	*	*
(<[8e-J [<8An 8G-\	4	4bn\	.	.
4e-] 4A] 4F\)	.	.	.	.
.	.	8cc\	.	.
=53	=53	=53	=53	=53
!	!	!	!	!LO:HP:t=poco cresc.
8BBB-\L	.	8ddn/L)	.	<
.	.	(16qqb-X/LL	2	.
.	.	16qqcc/JJ	.	.
(<[8dnJ [8B- 8Gn\	4	(8b-/)	.	.
8d] 8B-] 8F\)	.	8an/	1	.
8r	.	8gn/J	4	.
=54	=54	=54	=54	=54
8BBB-\L	.	8.f/L)	3	.
(8B-J [8F\	1 2	.	.	.
.	.	(16c/K	1	.
4An 4F\])	.	8e-/	3	.
.	.	8dn/J	2	.
=55	=55	=55	=55	=55
8BBB-\L	.	2f/)	.	.
!LO:S:s=1:note:problem=note-level slur	!	!	!	!
[8dnJ (<8c [8F\	5	.	.	.
!LO:S:s=1:note:problem=note-level slur	!	!	!	!
4d] 4B-) 4F\]	.	.	.	.
=56	=56	=56	=56	=56
*	*	*^	*	*
!	!	!LO:TX:b:i:t=dolcissimo	!	!	!
8BBB-\L	.	16.r	8ryy	.	.
.	.	(32ff\	.	.	.
[8e-::J 8G-::\	4	4bn::/	4.an::\	1 2	.
4e-] 4F\	.	.	.	.	.
.	.	8cc/	.	.	.
*	*	*v	*v	*	*
=57	=57	=57	=57	=57
8BBB-\L	.	8dd-/L)	.	.
.	.	(16qqb-X/LL	2	.
.	.	16qqcc/JJ	.	.
[8d-J [8B- 8F\	4	(8b-/)	.	.
4d-] 4B-] 4En\	.	8a-/	1	.
.	.	8g-/J	4	.
!!LO:LB:g=original
=58	=58	=58	=58	=58
8BBB-\L	.	8.f/L)	.	.
[8AnJ 8F\	3	.	.	.
.	.	((16c/K	1	.
!	!	!LO:TX:b:i:t=poco-cresc.-e-stringendo:ext=s:problem:text with extention lines	!	!
4A] 4G-\	.	8e-/)	3	<
.	.	(8d-/J	2	.
=59	=59	=59	=59	=59
8BBB-\L	.	[2g-/))	4	.
[8d-J [8B- 8G-\	4	.	.	.
4d-] 4B-] 4F-X\	.	.	.	.
=60	=60	=60	=60	=60
8BBB-\L	.	8.g-/L]	.	.
!LO:S:s=1:note:problem=note-level slur	!	!	!	!
[8cJ (<8B- [8E-\	5	.	.	.
.	.	((16e-/K	1	.
!LO:S:s=1:note:problem=note-level slur	!	!	!	!
4c] 4An) 4E-\]	.	8g-/)	3	.
.	.	(8f/J	2	[
=61	=61	=61	=61	=61
8BBB-\L	.	[2cc\))	5	.
[8e-J 8B- [8F\	5	.	.	.
4e-] 4An 4F\]	.	.	.	.
=62	=62	=62	=62	=62
8BBB-\L	.	8.cc\L]	.	.
[8g-J 8An [8G-\	4 5	.	.	.
!	!	!LO:TX:b:i:t=allargando	!	!
.	.	(16b-\K	1	.
4g-_ [4B- 4G-\_	.	8ee-\	3	.
.	.	8dd-\J	.	.
=63	=63	=63	=63	=63
*^	*	*	*	*
8g-] 8B-] 8G-\]	4ryy	.	2bb-\)	.	.
16rd	.	.	.	.	.
*	*	*above	*	*	*
(16c/KL	.	4	.	.	.
!LO:TX:b:i:t=poco marcato	!	!	!	!	!
8e-::/	[4B-::\	2	.	.	.
8d-/J	.	3	.	.	.
=64	=64	=64	=64	=64	=64
!!LO:TX:a:i:t=a tempo
4b-~/	2B-\_	.	16.r	.	.
.	.	.	(32bb-\	4	.
!	!	!	!	!	!LO:HP:t=diminuendo
.	.	.	4een\	1	>
4a-/	.	2	.	.	.
.	.	.	8ff\)	.	.
=65	=65	=65	=65	=65	=65
4g-/	2B-\_	3	16.r	.	.
.	.	.	(32gg-\	4	.
.	.	.	4cc\	1	.
4f-X/	.	1	.	.	.
.	.	.	8dd-\)	.	.
!!LO:LB:g=original
=66	=66	=66	=66	=66	=66
!	!	!	!LO:TX:a:i:t=smorz.	!	!
4e-/	2B-\]	2	16.r	.	.
.	.	.	(32ee-\	4	.
.	.	.	4an/	.	.
4d-/	.	3	.	.	.
.	.	.	8b-\)	.	.
*v	*v	*	*	*	*
=67	=67	=67	=67	=67
4c\	1	16.r	.	.
.	.	(32b-\	4	.
.	.	4en/	.	.
4B-\)	2	.	.	.
.	.	8f/)	.	.
=68	=68	=68	=68	=68
*ped	*	*	*	*
!!LO:TX:a:i:t=a tempo
(16BBB-\LL	.	2ryy	.	pp
16FF\	.	.	.	.
16BB-\JJ	.	.	.	.
16F/LL	1	.	.	.
16B-/	2	.	.	.
16dn>/	.	.	.	.
16f>/JJ	.	.	.	.
*	*below	*	*	*
!	!	!LO:TX:b:i:t=m.s.	!	!
[16b->\	4	.	.	.
=69	=69	=69	=69	=69
4ddn> 4b->\])	2	8rccc	.	.
.	.	(>4een~/	1	.
[4B- [4Dn [4BB-\	4 5	.	.	.
*Xped	*	*	*	*
.	.	8ff/)	2	.
=70	=70	=70	=70	=70
*^	*	*	*	*
2B-] 2BB-\_<	8D/]	.	[2bb-\	4	.
*	*	*above	*	*	*
.	(>4En~>/	3	.	.	.
*ped	*	*	*	*	*
.	[8F/	.	.	.	.
=71	=71	=71	=71	=71	=71
4dn/)	4F] 4BB-\]	.	4bb-\_	.	.
*clefG2	*	*below	*	*	*
!	!	!	!LO:TX:b:i:t=morendo	!	!
(4f 4B-/	4ryy	2 5	16bb-\LL]	.	.
.	.	.	16aan'~\	1	.
.	.	.	16ccc'~\	3	.
.	.	.	16bb-'~\JJ	2	.
*v	*v	*	*	*	*
=72	=72	=72	=72	=72
4b- 4dn/	1 3	16dddn'\LL	4	.
.	.	16ccc#X'\JJ	2	.
.	.	(4eee-\	4	.
4ddn 4f/	2 5	.	.	.
.	.	8dddn\)	3	.
=73	=73	=73	=73	=73
2ff 2b-\)	.	2dddn\	2	.
*Xped	*	*	*	*
==	==	==	==	==
*-	*-	*-	*-	*-
!!!YEM: Copyright © 2023 by [Copyright Holder]
!!!system-decoration: {(g1)}
!!!RDF**kern: i = editorial accidental
!!!RDF**kern: > = above
!!!RDF**kern: < = below
!!!RDF**kern: N = linked
!!!RDF**dynam: > = "dim.", fontstyle= "italic"
!!!ENC: Anastazja Marusiak
!!!EED: Katarzyna Serwa
!!!END: 2023-10-19
!!!EEV: 2023-11-09
